packages/icons/plugins/TwitterVerify.svg

<svg width="24" height="24" viewBox="-3 -3 24 24" xmlns="http://www.w3.org/2000/svg">
<g width="18" height="18" view-box="0 0 18 18" fill="none" xmlns="http://www.w3.org/2000/svg">
        <path
            fill-rule="evenodd"
            clip-rule="evenodd"
            d="M9.00199 0.9375C9.45818 0.9375 9.94205 1.00066 10.3403 1.14592L10.345 1.14763L14.0871 2.55C14.0872 2.55001 14.0871 2.54999 14.0871 2.55C14.6473 2.7595 15.1249 3.18007 15.4599 3.66436C15.795 4.14874 16.0201 4.74388 16.0201 5.34188V10.9144C16.0201 11.4686 15.8409 12.0677 15.5786 12.5893C15.3161 13.1111 14.9416 13.6126 14.4969 13.9449L11.2731 16.3515C11.2728 16.3517 11.2725 16.352 11.2722 16.3522C10.6289 16.8354 9.80508 17.0606 9.00762 17.0606C8.21018 17.0606 7.38639 16.8354 6.74312 16.3523C6.74279 16.352 6.74245 16.3517 6.74211 16.3515L3.51862 13.9451C3.07388 13.6127 2.69915 13.1111 2.43667 12.5893C2.17429 12.0677 1.99512 11.4686 1.99512 10.9144V5.34188C1.99512 4.74679 2.22083 4.15336 2.55568 3.67043C2.89046 3.18759 3.36754 2.76731 3.9274 2.55777C3.92764 2.55768 3.92788 2.55759 3.92811 2.5575L7.6693 1.14799L7.67081 1.14743C8.06427 1.00047 8.54648 0.9375 9.00199 0.9375ZM8.06515 2.20105C8.06491 2.20114 8.06467 2.20123 8.06443 2.20132L4.32212 3.61125C4.0198 3.72429 3.71339 3.97511 3.48018 4.31145C3.24691 4.64789 3.12012 5.02196 3.12012 5.34188V10.9144C3.12012 11.2452 3.23345 11.6698 3.44169 12.0838C3.64977 12.4975 3.92393 12.8435 4.19161 13.0436M4.19161 13.0436L7.41813 15.4523C7.83221 15.7636 8.40673 15.9356 9.00762 15.9356C9.60851 15.9356 10.183 15.7636 10.5971 15.4523L10.5986 15.4511L13.8234 13.0438C14.0911 12.8437 14.3654 12.4976 14.5735 12.0838C14.7818 11.6698 14.8951 11.2452 14.8951 10.9144V5.34188C14.8951 5.01737 14.7677 4.64126 14.5347 4.30439C14.3016 3.96746 13.9954 3.71676 13.6931 3.60375L9.95273 2.20204C9.71361 2.11527 9.3697 2.0625 9.00199 2.0625C8.63289 2.0625 8.29418 2.11566 8.06515 2.20105"
            fill="white"
        />
        <path
            fill-rule="evenodd"
            clip-rule="evenodd"
            d="M11.6174 6.48507C11.837 6.70473 11.837 7.06089 11.6174 7.28056L8.39236 10.5056C8.17269 10.7252 7.81653 10.7252 7.59686 10.5056L6.38936 9.29806C6.16969 9.07839 6.16969 8.72223 6.38936 8.50256C6.60903 8.28289 6.96519 8.28289 7.18486 8.50256L7.99461 9.31232L10.8219 6.48506C11.0415 6.26539 11.3977 6.2654 11.6174 6.48507Z"
            fill="white"
        />
    </g>
</svg>

<svg xmlns="http://www.w3.org/2000/svg" viewBox="-3 -3 24 24">
    <g xmlns="http://www.w3.org/2000/svg" fill="#fff" fill-rule="evenodd" clip-rule="evenodd">
        <path d="M9.002.938c.456 0 .94.063 1.338.208l.005.002 3.742 1.402c.56.21 1.038.63 1.373 1.114.335.485.56 1.08.56 1.678v5.572c0 .555-.18 1.154-.441 1.675-.263.522-.637 1.024-1.082 1.356l-3.224 2.407c-.644.483-1.468.709-2.265.709-.798 0-1.622-.226-2.265-.709l-3.224-2.407c-.445-.332-.82-.834-1.082-1.356-.263-.521-.442-1.12-.442-1.675V5.342c0-.595.226-1.189.56-1.672.335-.482.813-.903 1.372-1.112h.001l3.741-1.41h.002c.393-.148.875-.21 1.331-.21ZM8.065 2.2 4.322 3.61c-.302.113-.609.364-.842.7-.233.337-.36.711-.36 1.03v5.573c0 .331.113.756.322 1.17.208.414.482.76.75.96m0 0 3.226 2.408c.414.312.989.484 1.59.484.6 0 1.175-.172 1.59-.484l3.225-2.408c.268-.2.542-.546.75-.96.209-.414.322-.839.322-1.17V5.342c0-.325-.127-.7-.36-1.038-.233-.337-.54-.587-.842-.7l-3.74-1.402c-.24-.087-.583-.14-.951-.14-.37 0-.708.054-.937.14"/>
        <path d="M11.617 6.485c.22.22.22.576 0 .796l-3.225 3.225a.563.563 0 0 1-.795 0L6.389 9.298a.563.563 0 0 1 .796-.795l.81.81 2.827-2.828c.22-.22.576-.22.795 0Z"/>
    </g>
</svg>
